X:643
%%etbk:tnset id:386,pos:1,rep:3x,ant:
%%etbk:wsite https://thesession.org/tunes/150
%%etbk:color #e6ffe6
%%etbk:pldat 2016-09-17T14:09,2016-09-16T16:12,2016-09-09T18:48,2016-04-20T15:31,2016-03-21T18:54,2016-03-20T11:20,2015-08-11T16:51,2015-08-11T16:44,2015-06-03T19:48,2015-04-06T10:18
T: Paddy Fahey's
Z: Piano Box Version by Martin Fleischmann
H: Created 2015-03-27 /  Last Modified 2016-09-16
R: reel
M: 4/4
L: 1/8
K: Gmaj
|:!2!G2 !3!B!1!D !2!G!3!B!5!d!1!B|!2!c2 ag fg!1!d!3!c|!2!B!1!~G3 !3!BcdB|!4!cB!2!A!1!G FzC!2!F|
!3!GD DD !2!G!3!B!5!d!1!B|c2 ag fgdc|B~G3 BcdB|1 cAFA G3 D:|2 cAFA G2 Bc||
|:!1!dgfa !4!g!1!d!3!B!1!G|!2!F!1!GAB !4!c2 !2!Bc|!1!A!5!aag a3g|!3!fd!5!ad !5!bd!5!ad|
(3ggg fa gdBG|FGAB c2 Bc|!1!d~!3!g3 defd|1 cAFA G2 Bc:|2 cAFA G2 DB,||


